images/50164389.svg

<?xml version="1.0" encoding="UTF-8"?>
<svg xmlns="http://www.w3.org/2000/svg" xmlns:xlink="http://www.w3.org/1999/xlink" width="300pt" height="300pt" viewBox="0 0 300 300" version="1.1">
<defs>
<g>
<symbol overflow="visible" id="glyph0-0">
<path style="stroke:none;" d="M 0.453125 1.59375 L 0.453125 -6.34375 L 4.953125 -6.34375 L 4.953125 1.59375 Z M 0.953125 1.09375 L 4.453125 1.09375 L 4.453125 -5.84375 L 0.953125 -5.84375 Z M 0.953125 1.09375 "/>
</symbol>
<symbol overflow="visible" id="glyph0-1">
<path style="stroke:none;" d="M 5.796875 -6.0625 L 5.796875 -5.125 C 5.492188 -5.394531 5.171875 -5.597656 4.828125 -5.734375 C 4.492188 -5.878906 4.140625 -5.953125 3.765625 -5.953125 C 3.015625 -5.953125 2.4375 -5.722656 2.03125 -5.265625 C 1.632812 -4.804688 1.4375 -4.144531 1.4375 -3.28125 C 1.4375 -2.414062 1.632812 -1.753906 2.03125 -1.296875 C 2.4375 -0.835938 3.015625 -0.609375 3.765625 -0.609375 C 4.140625 -0.609375 4.492188 -0.675781 4.828125 -0.8125 C 5.171875 -0.945312 5.492188 -1.15625 5.796875 -1.4375 L 5.796875 -0.5 C 5.484375 -0.289062 5.15625 -0.132812 4.8125 -0.03125 C 4.46875 0.0703125 4.097656 0.125 3.703125 0.125 C 2.710938 0.125 1.929688 -0.175781 1.359375 -0.78125 C 0.785156 -1.394531 0.5 -2.226562 0.5 -3.28125 C 0.5 -4.332031 0.785156 -5.160156 1.359375 -5.765625 C 1.929688 -6.378906 2.710938 -6.6875 3.703125 -6.6875 C 4.097656 -6.6875 4.46875 -6.632812 4.8125 -6.53125 C 5.164062 -6.425781 5.492188 -6.269531 5.796875 -6.0625 Z M 5.796875 -6.0625 "/>
</symbol>
<symbol overflow="visible" id="glyph0-2">
<path style="stroke:none;" d="M 0.84375 -6.84375 L 1.65625 -6.84375 L 1.65625 0 L 0.84375 0 Z M 0.84375 -6.84375 "/>
</symbol>
<symbol overflow="visible" id="glyph0-3">
<path style="stroke:none;" d="M 0.890625 -6.5625 L 2.078125 -6.5625 L 4.984375 -1.078125 L 4.984375 -6.5625 L 5.84375 -6.5625 L 5.84375 0 L 4.65625 0 L 1.75 -5.484375 L 1.75 0 L 0.890625 0 Z M 0.890625 -6.5625 "/>
</symbol>
<symbol overflow="visible" id="glyph0-4">
<path style="stroke:none;" d="M 0.890625 -6.5625 L 1.765625 -6.5625 L 1.765625 -3.875 L 5 -3.875 L 5 -6.5625 L 5.890625 -6.5625 L 5.890625 0 L 5 0 L 5 -3.125 L 1.765625 -3.125 L 1.765625 0 L 0.890625 0 Z M 0.890625 -6.5625 "/>
</symbol>
<symbol overflow="visible" id="glyph0-5">
<path style="stroke:none;" d="M 3.546875 -5.953125 C 2.898438 -5.953125 2.382812 -5.710938 2 -5.234375 C 1.625 -4.753906 1.4375 -4.101562 1.4375 -3.28125 C 1.4375 -2.445312 1.625 -1.789062 2 -1.3125 C 2.382812 -0.832031 2.898438 -0.59375 3.546875 -0.59375 C 4.191406 -0.59375 4.703125 -0.832031 5.078125 -1.3125 C 5.453125 -1.789062 5.640625 -2.445312 5.640625 -3.28125 C 5.640625 -4.101562 5.453125 -4.753906 5.078125 -5.234375 C 4.703125 -5.710938 4.191406 -5.953125 3.546875 -5.953125 Z M 3.546875 -6.6875 C 4.460938 -6.6875 5.195312 -6.375 5.75 -5.75 C 6.300781 -5.132812 6.578125 -4.3125 6.578125 -3.28125 C 6.578125 -2.238281 6.300781 -1.410156 5.75 -0.796875 C 5.195312 -0.179688 4.460938 0.125 3.546875 0.125 C 2.617188 0.125 1.878906 -0.179688 1.328125 -0.796875 C 0.773438 -1.410156 0.5 -2.238281 0.5 -3.28125 C 0.5 -4.3125 0.773438 -5.132812 1.328125 -5.75 C 1.878906 -6.375 2.617188 -6.6875 3.546875 -6.6875 Z M 3.546875 -6.6875 "/>
</symbol>
</g>
</defs>
<g id="surface20469">
<rect x="0" y="0" width="300" height="300" style="fill:rgb(100%,100%,100%);fill-opacity:1;stroke:none;"/>
<path style="fill:none;stroke-width:1.2;stroke-linecap:butt;stroke-linejoin:miter;stroke:rgb(0%,80%,0%);stroke-opacity:1;stroke-miterlimit:10;" d="M 221.242188 196.523438 L 221.925781 184.359375 "/>
<path style="fill:none;stroke-width:1.2;stroke-linecap:butt;stroke-linejoin:miter;stroke:rgb(0%,0%,0%);stroke-opacity:1;stroke-miterlimit:10;" d="M 221.925781 184.359375 L 222.613281 172.195312 "/>
<path style=" stroke:none;fill-rule:nonzero;fill:rgb(100%,100%,100%);fill-opacity:1;" d="M 216.242188 191.023438 L 226.242188 191.023438 L 226.242188 202.023438 L 216.242188 202.023438 Z M 216.242188 191.023438 "/>
<g style="fill:rgb(0%,80%,0%);fill-opacity:1;">
  <use xlink:href="#glyph0-1" x="216.242188" y="199.686523"/>
  <use xlink:href="#glyph0-2" x="222.755859" y="199.686523"/>
</g>
<path style="fill:none;stroke-width:1.2;stroke-linecap:butt;stroke-linejoin:miter;stroke:rgb(0%,0%,0%);stroke-opacity:1;stroke-miterlimit:10;" d="M 222.613281 172.195312 L 202.226562 158.847656 "/>
<path style="fill:none;stroke-width:1.2;stroke-linecap:butt;stroke-linejoin:miter;stroke:rgb(0%,0%,0%);stroke-opacity:1;stroke-miterlimit:10;" d="M 223.714844 166.066406 L 207.40625 155.386719 "/>
<path style="fill:none;stroke-width:1.2;stroke-linecap:butt;stroke-linejoin:miter;stroke:rgb(0%,0%,0%);stroke-opacity:1;stroke-miterlimit:10;" d="M 244.367188 161.21875 L 222.613281 172.195312 "/>
<path style="fill:none;stroke-width:1.2;stroke-linecap:butt;stroke-linejoin:miter;stroke:rgb(0%,0%,0%);stroke-opacity:1;stroke-miterlimit:10;" d="M 202.226562 158.847656 L 191.351562 164.335938 "/>
<path style="fill:none;stroke-width:1.2;stroke-linecap:butt;stroke-linejoin:miter;stroke:rgb(0%,0%,100%);stroke-opacity:1;stroke-miterlimit:10;" d="M 191.351562 164.335938 L 180.472656 169.824219 "/>
<path style="fill:none;stroke-width:1.2;stroke-linecap:butt;stroke-linejoin:miter;stroke:rgb(0%,0%,0%);stroke-opacity:1;stroke-miterlimit:10;" d="M 202.226562 158.847656 L 203.597656 134.519531 "/>
<path style="fill:none;stroke-width:1.2;stroke-linecap:butt;stroke-linejoin:miter;stroke:rgb(0%,0%,100%);stroke-opacity:1;stroke-miterlimit:10;" d="M 180.472656 169.824219 L 170.28125 163.148438 "/>
<path style="fill:none;stroke-width:1.2;stroke-linecap:butt;stroke-linejoin:miter;stroke:rgb(0%,0%,0%);stroke-opacity:1;stroke-miterlimit:10;" d="M 170.28125 163.148438 L 160.089844 156.472656 "/>
<path style=" stroke:none;fill-rule:nonzero;fill:rgb(100%,100%,100%);fill-opacity:1;" d="M 173.472656 164.324219 L 187.472656 164.324219 L 187.472656 175.324219 L 173.472656 175.324219 Z M 173.472656 164.324219 "/>
<g style="fill:rgb(0%,0%,100%);fill-opacity:1;">
  <use xlink:href="#glyph0-3" x="173.472656" y="172.987305"/>
  <use xlink:href="#glyph0-4" x="180.450195" y="172.987305"/>
</g>
<path style="fill:none;stroke-width:1.2;stroke-linecap:butt;stroke-linejoin:miter;stroke:rgb(0%,0%,0%);stroke-opacity:1;stroke-miterlimit:10;" d="M 162.953125 156.636719 L 163.636719 144.46875 "/>
<path style="fill:none;stroke-width:1.2;stroke-linecap:butt;stroke-linejoin:miter;stroke:rgb(100%,0%,0%);stroke-opacity:1;stroke-miterlimit:10;" d="M 163.636719 144.46875 L 164.320312 132.304688 "/>
<path style="fill:none;stroke-width:1.2;stroke-linecap:butt;stroke-linejoin:miter;stroke:rgb(0%,0%,0%);stroke-opacity:1;stroke-miterlimit:10;" d="M 157.226562 156.3125 L 157.910156 144.148438 "/>
<path style="fill:none;stroke-width:1.2;stroke-linecap:butt;stroke-linejoin:miter;stroke:rgb(100%,0%,0%);stroke-opacity:1;stroke-miterlimit:10;" d="M 157.910156 144.148438 L 158.597656 131.984375 "/>
<path style="fill:none;stroke-width:1.2;stroke-linecap:butt;stroke-linejoin:miter;stroke:rgb(0%,0%,0%);stroke-opacity:1;stroke-miterlimit:10;" d="M 160.089844 156.472656 L 149.210938 161.960938 "/>
<path style="fill:none;stroke-width:1.2;stroke-linecap:butt;stroke-linejoin:miter;stroke:rgb(0%,0%,100%);stroke-opacity:1;stroke-miterlimit:10;" d="M 149.210938 161.960938 L 138.335938 167.453125 "/>
<path style=" stroke:none;fill-rule:nonzero;fill:rgb(100%,100%,100%);fill-opacity:1;" d="M 157.457031 126.644531 L 165.457031 126.644531 L 165.457031 137.644531 L 157.457031 137.644531 Z M 157.457031 126.644531 "/>
<g style="fill:rgb(100%,0%,0%);fill-opacity:1;">
  <use xlink:href="#glyph0-5" x="157.457031" y="135.307617"/>
</g>
<path style="fill:none;stroke-width:1.2;stroke-linecap:butt;stroke-linejoin:miter;stroke:rgb(0%,0%,100%);stroke-opacity:1;stroke-miterlimit:10;" d="M 138.335938 167.453125 L 128.144531 160.777344 "/>
<path style="fill:none;stroke-width:1.2;stroke-linecap:butt;stroke-linejoin:miter;stroke:rgb(0%,0%,0%);stroke-opacity:1;stroke-miterlimit:10;" d="M 128.144531 160.777344 L 117.949219 154.101562 "/>
<path style=" stroke:none;fill-rule:nonzero;fill:rgb(100%,100%,100%);fill-opacity:1;" d="M 131.335938 161.953125 L 145.335938 161.953125 L 145.335938 172.953125 L 131.335938 172.953125 Z M 131.335938 161.953125 "/>
<g style="fill:rgb(0%,0%,100%);fill-opacity:1;">
  <use xlink:href="#glyph0-3" x="131.335938" y="170.616211"/>
  <use xlink:href="#glyph0-4" x="138.313477" y="170.616211"/>
</g>
<path style="fill:none;stroke-width:1.2;stroke-linecap:butt;stroke-linejoin:miter;stroke:rgb(0%,0%,0%);stroke-opacity:1;stroke-miterlimit:10;" d="M 117.949219 154.101562 L 106.558594 158.421875 "/>
<path style="fill:none;stroke-width:1.2;stroke-linecap:butt;stroke-linejoin:miter;stroke:rgb(0%,0%,100%);stroke-opacity:1;stroke-miterlimit:10;" d="M 106.558594 158.421875 L 95.167969 162.746094 "/>
<path style="fill:none;stroke-width:1.2;stroke-linecap:butt;stroke-linejoin:miter;stroke:rgb(0%,0%,0%);stroke-opacity:1;stroke-miterlimit:10;" d="M 116.769531 129.761719 L 117.949219 154.101562 "/>
<path style="fill:none;stroke-width:1.2;stroke-linecap:butt;stroke-linejoin:miter;stroke:rgb(0%,0%,0%);stroke-opacity:1;stroke-miterlimit:10;" d="M 111.160156 132.472656 L 112.105469 151.945312 "/>
<path style="fill:none;stroke-width:1.2;stroke-linecap:butt;stroke-linejoin:miter;stroke:rgb(0%,0%,100%);stroke-opacity:1;stroke-miterlimit:10;" d="M 95.167969 162.746094 L 79.90625 143.75 "/>
<path style="fill:none;stroke-width:1.2;stroke-linecap:butt;stroke-linejoin:miter;stroke:rgb(0%,0%,100%);stroke-opacity:1;stroke-miterlimit:10;" d="M 95.167969 162.746094 L 91.96875 174.5 "/>
<path style="fill:none;stroke-width:1.2;stroke-linecap:butt;stroke-linejoin:miter;stroke:rgb(0%,0%,0%);stroke-opacity:1;stroke-miterlimit:10;" d="M 91.96875 174.5 L 88.769531 186.257812 "/>
<path style=" stroke:none;fill-rule:nonzero;fill:rgb(100%,100%,100%);fill-opacity:1;" d="M 92.167969 157.246094 L 99.167969 157.246094 L 99.167969 168.246094 L 92.167969 168.246094 Z M 92.167969 157.246094 "/>
<g style="fill:rgb(0%,0%,100%);fill-opacity:1;">
  <use xlink:href="#glyph0-3" x="92.167969" y="165.90918"/>
</g>
<path style="fill:none;stroke-width:1.2;stroke-linecap:butt;stroke-linejoin:miter;stroke:rgb(0%,0%,100%);stroke-opacity:1;stroke-miterlimit:10;" d="M 79.90625 143.75 L 86.582031 133.558594 "/>
<path style="fill:none;stroke-width:1.2;stroke-linecap:butt;stroke-linejoin:miter;stroke:rgb(0%,0%,0%);stroke-opacity:1;stroke-miterlimit:10;" d="M 86.582031 133.558594 L 93.257812 123.363281 "/>
<path style="fill:none;stroke-width:1.2;stroke-linecap:butt;stroke-linejoin:miter;stroke:rgb(0%,0%,100%);stroke-opacity:1;stroke-miterlimit:10;" d="M 86.039062 144.851562 L 91.378906 136.699219 "/>
<path style="fill:none;stroke-width:1.2;stroke-linecap:butt;stroke-linejoin:miter;stroke:rgb(0%,0%,0%);stroke-opacity:1;stroke-miterlimit:10;" d="M 91.378906 136.699219 L 96.71875 128.542969 "/>
<path style=" stroke:none;fill-rule:nonzero;fill:rgb(100%,100%,100%);fill-opacity:1;" d="M 76.90625 138.25 L 83.90625 138.25 L 83.90625 149.25 L 76.90625 149.25 Z M 76.90625 138.25 "/>
<g style="fill:rgb(0%,0%,100%);fill-opacity:1;">
  <use xlink:href="#glyph0-3" x="76.90625" y="146.913086"/>
</g>
<path style="fill:none;stroke-width:1.2;stroke-linecap:butt;stroke-linejoin:miter;stroke:rgb(0%,0%,0%);stroke-opacity:1;stroke-miterlimit:10;" d="M 93.257812 123.363281 L 116.769531 129.761719 "/>
<path style="fill:none;stroke-width:1.2;stroke-linecap:butt;stroke-linejoin:miter;stroke:rgb(0%,0%,0%);stroke-opacity:1;stroke-miterlimit:10;" d="M 93.257812 123.363281 L 84.613281 100.582031 "/>
<path style="fill:none;stroke-width:1.2;stroke-linecap:butt;stroke-linejoin:miter;stroke:rgb(0%,0%,0%);stroke-opacity:1;stroke-miterlimit:10;" d="M 84.613281 100.582031 L 107.394531 91.9375 "/>
<path style="fill:none;stroke-width:1.2;stroke-linecap:butt;stroke-linejoin:miter;stroke:rgb(0%,0%,0%);stroke-opacity:1;stroke-miterlimit:10;" d="M 84.613281 100.582031 L 61.832031 109.226562 "/>
<path style="fill:none;stroke-width:1.2;stroke-linecap:butt;stroke-linejoin:miter;stroke:rgb(0%,0%,0%);stroke-opacity:1;stroke-miterlimit:10;" d="M 84.613281 100.582031 L 75.96875 77.800781 "/>
<path style="fill:none;stroke-width:1.2;stroke-linecap:butt;stroke-linejoin:miter;stroke:rgb(0%,0%,0%);stroke-opacity:1;stroke-miterlimit:10;" d="M 88.769531 186.257812 L 65.210938 192.472656 "/>
<path style="fill:none;stroke-width:1.2;stroke-linecap:butt;stroke-linejoin:miter;stroke:rgb(0%,0%,0%);stroke-opacity:1;stroke-miterlimit:10;" d="M 67.242188 190.453125 L 58.664062 181.804688 "/>
<path style="fill:none;stroke-width:1.2;stroke-linecap:butt;stroke-linejoin:miter;stroke:rgb(100%,0%,0%);stroke-opacity:1;stroke-miterlimit:10;" d="M 58.664062 181.804688 L 50.082031 173.15625 "/>
<path style="fill:none;stroke-width:1.2;stroke-linecap:butt;stroke-linejoin:miter;stroke:rgb(0%,0%,0%);stroke-opacity:1;stroke-miterlimit:10;" d="M 63.175781 194.492188 L 54.59375 185.84375 "/>
<path style="fill:none;stroke-width:1.2;stroke-linecap:butt;stroke-linejoin:miter;stroke:rgb(100%,0%,0%);stroke-opacity:1;stroke-miterlimit:10;" d="M 54.59375 185.84375 L 46.011719 177.195312 "/>
<path style="fill:none;stroke-width:1.2;stroke-linecap:butt;stroke-linejoin:miter;stroke:rgb(0%,0%,0%);stroke-opacity:1;stroke-miterlimit:10;" d="M 65.210938 192.472656 L 62.011719 204.230469 "/>
<path style="fill:none;stroke-width:1.2;stroke-linecap:butt;stroke-linejoin:miter;stroke:rgb(0%,0%,100%);stroke-opacity:1;stroke-miterlimit:10;" d="M 62.011719 204.230469 L 58.8125 215.984375 "/>
<path style=" stroke:none;fill-rule:nonzero;fill:rgb(100%,100%,100%);fill-opacity:1;" d="M 40.046875 169.675781 L 48.046875 169.675781 L 48.046875 180.675781 L 40.046875 180.675781 Z M 40.046875 169.675781 "/>
<g style="fill:rgb(100%,0%,0%);fill-opacity:1;">
  <use xlink:href="#glyph0-5" x="40.046875" y="178.338867"/>
</g>
<path style="fill:none;stroke-width:1.2;stroke-linecap:butt;stroke-linejoin:miter;stroke:rgb(0%,0%,100%);stroke-opacity:1;stroke-miterlimit:10;" d="M 58.8125 215.984375 L 47.03125 219.09375 "/>
<path style="fill:none;stroke-width:1.2;stroke-linecap:butt;stroke-linejoin:miter;stroke:rgb(0%,0%,0%);stroke-opacity:1;stroke-miterlimit:10;" d="M 47.03125 219.09375 L 35.25 222.199219 "/>
<path style=" stroke:none;fill-rule:nonzero;fill:rgb(100%,100%,100%);fill-opacity:1;" d="M 51.8125 210.484375 L 65.8125 210.484375 L 65.8125 221.484375 L 51.8125 221.484375 Z M 51.8125 210.484375 "/>
<g style="fill:rgb(0%,0%,100%);fill-opacity:1;">
  <use xlink:href="#glyph0-3" x="51.8125" y="219.147461"/>
  <use xlink:href="#glyph0-4" x="58.790039" y="219.147461"/>
</g>
<path style="fill:none;stroke-width:1.2;stroke-linecap:butt;stroke-linejoin:miter;stroke:rgb(0%,0%,0%);stroke-opacity:1;stroke-miterlimit:10;" d="M 203.597656 134.519531 L 225.351562 123.539062 "/>
<path style="fill:none;stroke-width:1.2;stroke-linecap:butt;stroke-linejoin:miter;stroke:rgb(0%,0%,0%);stroke-opacity:1;stroke-miterlimit:10;" d="M 208.355469 138.539062 L 225.757812 129.757812 "/>
<path style="fill:none;stroke-width:1.2;stroke-linecap:butt;stroke-linejoin:miter;stroke:rgb(0%,0%,0%);stroke-opacity:1;stroke-miterlimit:10;" d="M 225.351562 123.539062 L 245.734375 136.890625 "/>
<path style="fill:none;stroke-width:1.2;stroke-linecap:butt;stroke-linejoin:miter;stroke:rgb(0%,0%,0%);stroke-opacity:1;stroke-miterlimit:10;" d="M 245.734375 136.890625 L 244.367188 161.21875 "/>
<path style="fill:none;stroke-width:1.2;stroke-linecap:butt;stroke-linejoin:miter;stroke:rgb(0%,0%,0%);stroke-opacity:1;stroke-miterlimit:10;" d="M 239.875 139 L 238.777344 158.464844 "/>
<path style="fill:none;stroke-width:1.2;stroke-linecap:butt;stroke-linejoin:miter;stroke:rgb(0%,0%,0%);stroke-opacity:1;stroke-miterlimit:10;" d="M 244.367188 161.21875 L 254.558594 167.894531 "/>
<path style="fill:none;stroke-width:1.2;stroke-linecap:butt;stroke-linejoin:miter;stroke:rgb(0%,80%,0%);stroke-opacity:1;stroke-miterlimit:10;" d="M 254.558594 167.894531 L 264.75 174.570312 "/>
<path style=" stroke:none;fill-rule:nonzero;fill:rgb(100%,100%,100%);fill-opacity:1;" d="M 259.75 169.070312 L 269.75 169.070312 L 269.75 180.070312 L 259.75 180.070312 Z M 259.75 169.070312 "/>
<g style="fill:rgb(0%,80%,0%);fill-opacity:1;">
  <use xlink:href="#glyph0-1" x="259.75" y="177.733398"/>
  <use xlink:href="#glyph0-2" x="266.263672" y="177.733398"/>
</g>
</g>
</svg>

<svg xmlns="http://www.w3.org/2000/svg" xmlns:xlink="http://www.w3.org/1999/xlink" width="300pt" height="300pt" viewBox="0 0 300 300"><defs><symbol overflow="visible"><path d="M.453 1.594v-7.938h4.5v7.938zm.5-.5h3.5v-6.938h-3.5zm0 0"/></symbol><symbol overflow="visible" id="a"><path d="M5.797-6.063v.938c-.305-.27-.625-.473-.97-.61-.335-.144-.686-.218-1.06-.218-.75 0-1.33.23-1.736.687-.397.46-.592 1.12-.592 1.985 0 .866.195 1.526.593 1.983.408.46.986.688 1.736.688.375 0 .726-.066 1.062-.203.344-.132.664-.343.97-.625V-.5c-.314.21-.642.367-.986.47-.343.1-.714.155-1.11.155-.99 0-1.772-.3-2.343-.906C.784-1.396.5-2.228.5-3.28c0-1.052.285-1.88.86-2.486.57-.613 1.35-.92 2.343-.92.395-.002.766.053 1.11.155.35.104.68.26.984.468zm0 0"/></symbol><symbol overflow="visible" id="b"><path d="M.844-6.844h.812V0H.844zm0 0"/></symbol><symbol overflow="visible" id="c"><path d="M.89-6.563H2.08l2.906 5.485v-5.484h.86V0H4.656L1.75-5.484V0H.89zm0 0"/></symbol><symbol overflow="visible" id="d"><path d="M.89-6.563h.876v2.688H5v-2.688h.89V0H5v-3.125H1.766V0H.89zm0 0"/></symbol><symbol overflow="visible" id="e"><path d="M3.547-5.953c-.65 0-1.164.242-1.547.72-.375.48-.563 1.13-.563 1.952 0 .835.188 1.49.563 1.967.383.48.898.72 1.547.72.644 0 1.156-.24 1.53-.72.376-.476.564-1.132.564-1.968 0-.822-.187-1.474-.562-1.954-.375-.477-.887-.72-1.53-.72zm0-.734c.914 0 1.648.312 2.203.937.55.617.828 1.438.828 2.47 0 1.042-.277 1.87-.828 2.483-.555.617-1.29.922-2.203.922-.93 0-1.668-.305-2.22-.922C.774-1.41.5-2.237.5-3.28c0-1.033.273-1.853.828-2.47.55-.625 1.29-.938 2.22-.938zm0 0"/></symbol></defs><g><path fill="#fff" d="M0 0h300v300H0z"/><path d="M221.242 196.523l.684-12.164" stroke-width="1.2" stroke="#0c0" stroke-miterlimit="10" fill="none"/><path d="M221.926 184.36l.687-12.165" stroke-width="1.2" stroke="#000" stroke-miterlimit="10" fill="none"/><path d="M216.242 191.023h10v11h-10zm0 0" fill="#fff"/><g fill="#0c0"><use xlink:href="#a" x="216.242" y="199.687"/><use xlink:href="#b" x="222.756" y="199.687"/></g><path d="M222.613 172.195l-20.386-13.347M223.715 166.066l-16.31-10.68M244.367 161.22l-21.754 10.975M202.227 158.848l-10.875 5.488" stroke-width="1.2" stroke="#000" stroke-miterlimit="10" fill="none"/><path d="M191.352 164.336l-10.88 5.488" stroke-width="1.2" stroke="#00f" stroke-miterlimit="10" fill="none"/><path d="M202.227 158.848l1.37-24.328" stroke-width="1.2" stroke="#000" stroke-miterlimit="10" fill="none"/><path d="M180.473 169.824l-10.192-6.676" stroke-width="1.2" stroke="#00f" stroke-miterlimit="10" fill="none"/><path d="M170.28 163.148l-10.19-6.675" stroke-width="1.2" stroke="#000" stroke-miterlimit="10" fill="none"/><path d="M173.473 164.324h14v11h-14zm0 0" fill="#fff"/><g fill="#00f"><use xlink:href="#c" x="173.473" y="172.987"/><use xlink:href="#d" x="180.45" y="172.987"/></g><path d="M162.953 156.637l.684-12.168" stroke-width="1.2" stroke="#000" stroke-miterlimit="10" fill="none"/><path d="M163.637 144.47l.683-12.165" stroke-width="1.2" stroke="#f00" stroke-miterlimit="10" fill="none"/><path d="M157.227 156.313l.683-12.165" stroke-width="1.2" stroke="#000" stroke-miterlimit="10" fill="none"/><path d="M157.91 144.148l.688-12.164" stroke-width="1.2" stroke="#f00" stroke-miterlimit="10" fill="none"/><path d="M160.09 156.473l-10.88 5.488" stroke-width="1.2" stroke="#000" stroke-miterlimit="10" fill="none"/><path d="M149.21 161.96l-10.874 5.493" stroke-width="1.2" stroke="#00f" stroke-miterlimit="10" fill="none"/><path d="M157.457 126.645h8v11h-8zm0 0" fill="#fff"/><use xlink:href="#e" x="157.457" y="135.308" fill="#f00"/><path d="M138.336 167.453l-10.19-6.676" stroke-width="1.2" stroke="#00f" stroke-miterlimit="10" fill="none"/><path d="M128.145 160.777l-10.196-6.675" stroke-width="1.2" stroke="#000" stroke-miterlimit="10" fill="none"/><path d="M131.336 161.953h14v11h-14zm0 0" fill="#fff"/><g fill="#00f"><use xlink:href="#c" x="131.336" y="170.616"/><use xlink:href="#d" x="138.313" y="170.616"/></g><path d="M117.95 154.102l-11.39 4.32" stroke-width="1.2" stroke="#000" stroke-miterlimit="10" fill="none"/><path d="M106.56 158.422l-11.392 4.324" stroke-width="1.2" stroke="#00f" stroke-miterlimit="10" fill="none"/><path d="M116.77 129.762l1.18 24.34M111.16 132.473l.945 19.472" stroke-width="1.2" stroke="#000" stroke-miterlimit="10" fill="none"/><path d="M95.168 162.746L79.906 143.75M95.168 162.746l-3.2 11.754" stroke-width="1.2" stroke="#00f" stroke-miterlimit="10" fill="none"/><path d="M91.97 174.5l-3.2 11.758" stroke-width="1.2" stroke="#000" stroke-miterlimit="10" fill="none"/><path d="M92.168 157.246h7v11h-7zm0 0" fill="#fff"/><use xlink:href="#c" x="92.168" y="165.909" fill="#00f"/><path d="M79.906 143.75l6.676-10.19" stroke-width="1.2" stroke="#00f" stroke-miterlimit="10" fill="none"/><path d="M86.582 133.56l6.676-10.197" stroke-width="1.2" stroke="#000" stroke-miterlimit="10" fill="none"/><path d="M86.04 144.852l5.34-8.153" stroke-width="1.2" stroke="#00f" stroke-miterlimit="10" fill="none"/><path d="M91.38 136.7l5.34-8.157" stroke-width="1.2" stroke="#000" stroke-miterlimit="10" fill="none"/><path d="M76.906 138.25h7v11h-7zm0 0" fill="#fff"/><use xlink:href="#c" x="76.906" y="146.913" fill="#00f"/><path d="M93.258 123.363l23.512 6.4M93.258 123.363l-8.645-22.78M84.613 100.582l22.782-8.644M84.613 100.582l-22.78 8.645M84.613 100.582l-8.644-22.78M88.77 186.258l-23.56 6.215M67.242 190.453l-8.578-8.648" stroke-width="1.2" stroke="#000" stroke-miterlimit="10" fill="none"/><path d="M58.664 181.805l-8.582-8.65" stroke-width="1.2" stroke="#f00" stroke-miterlimit="10" fill="none"/><path d="M63.176 194.492l-8.582-8.648" stroke-width="1.2" stroke="#000" stroke-miterlimit="10" fill="none"/><path d="M54.594 185.844l-8.582-8.65" stroke-width="1.2" stroke="#f00" stroke-miterlimit="10" fill="none"/><path d="M65.21 192.473l-3.198 11.757" stroke-width="1.2" stroke="#000" stroke-miterlimit="10" fill="none"/><path d="M62.012 204.23l-3.2 11.754" stroke-width="1.2" stroke="#00f" stroke-miterlimit="10" fill="none"/><path d="M40.047 169.676h8v11h-8zm0 0" fill="#fff"/><use xlink:href="#e" x="40.047" y="178.339" fill="#f00"/><path d="M58.813 215.984l-11.782 3.11" stroke-width="1.2" stroke="#00f" stroke-miterlimit="10" fill="none"/><path d="M47.03 219.094L35.25 222.2" stroke-width="1.2" stroke="#000" stroke-miterlimit="10" fill="none"/><path d="M51.813 210.484h14v11h-14zm0 0" fill="#fff"/><g fill="#00f"><use xlink:href="#c" x="51.813" y="219.147"/><use xlink:href="#d" x="58.79" y="219.147"/></g><path d="M203.598 134.52l21.754-10.98M208.355 138.54l17.403-8.782M225.352 123.54l20.382 13.35M245.734 136.89l-1.367 24.33M239.875 139l-1.098 19.465M244.367 161.22l10.192 6.675" stroke-width="1.2" stroke="#000" stroke-miterlimit="10" fill="none"/><path d="M254.56 167.895l10.19 6.675" stroke-width="1.2" stroke="#0c0" stroke-miterlimit="10" fill="none"/><path d="M259.75 169.07h10v11h-10zm0 0" fill="#fff"/><g fill="#0c0"><use xlink:href="#a" x="259.75" y="177.733"/><use xlink:href="#b" x="266.264" y="177.733"/></g></g></svg>
